build/category/WatcherOutline.svg

<svg xmlns="http://www.w3.org/2000/svg" fill="none" viewBox="0 0 24 24" focusable="false"><path d="M0 0H24V24H0z"/><path fill="#74767B" fill-rule="evenodd" d="M19.1515 13.9822C19.5587 14.1134 20 13.8262 20 13.3984L20 7C20 5.34315 18.6569 4 17 4L7 4C5.34315 4 4 5.34315 4 7L4 17C4 18.6569 5.34315 20 7 20L10.9231 20C11.3181 20 11.5781 19.5676 11.4932 19.1818C11.4339 18.9118 11.2098 18.7 10.9334 18.7L7 18.7C6.06112 18.7 5.3 17.9389 5.3 17L5.3 7C5.3 6.06112 6.06112 5.3 7 5.3L17 5.3C17.9389 5.3 18.7 6.06112 18.7 7L18.7 13.4003C18.7 13.6676 18.8972 13.9003 19.1515 13.9822ZM12.8458 9.30602C13.1883 9.41357 13.3788 9.7784 13.2712 10.1209L11.9688 14.2686C11.8612 14.6111 11.4964 14.8015 11.1539 14.694C10.8114 14.5864 10.6209 14.2216 10.7285 13.8791L12.0309 9.73143C12.1385 9.38893 12.5033 9.19847 12.8458 9.30602ZM9.59973 9.43327C9.88539 9.65345 9.93039 10.0535 9.70023 10.3268L8.29103 12L9.70023 13.6732C9.93039 13.9465 9.88539 14.3466 9.59973 14.5667C9.31406 14.7869 8.89591 14.7439 8.66575 14.4706L6.92078 12.3987C6.72479 12.166 6.72479 11.834 6.92078 11.6013L8.66575 9.52942C8.89591 9.25613 9.31406 9.21309 9.59973 9.43327ZM14.3998 9.43327C14.1141 9.65345 14.0691 10.0535 14.2993 10.3268L15.7085 12L14.2993 13.6732C14.0691 13.9465 14.1141 14.3466 14.3998 14.5667C14.6855 14.7869 15.1036 14.7439 15.3338 14.4706L17.0787 12.3987C17.2747 12.166 17.2747 11.834 17.0787 11.6013L15.3338 9.52942C15.1036 9.25613 14.6855 9.21309 14.3998 9.43327ZM21.5343 19.726C22.121 19.0015 22.1278 17.9944 21.5452 17.2666C20.7383 16.2588 19.3326 14.9998 17.3449 14.9998C15.3535 14.9998 13.95 16.2634 13.1469 17.2721C12.5693 17.9975 12.5762 18.9985 13.1578 19.7206C13.9712 20.7305 15.3838 22 17.3449 22C19.3024 22 20.7172 20.735 21.5343 19.726ZM17.3449 20.7C18.7119 20.7 19.7935 19.8099 20.524 18.9079C20.7294 18.6543 20.7278 18.3258 20.5304 18.0791C19.8179 17.1892 18.7457 16.2998 17.3449 16.2998C15.9423 16.2998 14.8727 17.1916 14.1639 18.0819C13.9686 18.3272 13.9671 18.6529 14.1702 18.9051C14.8971 19.8075 15.9762 20.7 17.3449 20.7ZM18.3745 18.5242C18.3745 19.0765 17.9268 19.5242 17.3745 19.5242C16.8222 19.5242 16.3745 19.0765 16.3745 18.5242C16.3745 17.9719 16.8222 17.5242 17.3745 17.5242C17.9268 17.5242 18.3745 17.9719 18.3745 18.5242Z"/></svg>

<svg xmlns="http://www.w3.org/2000/svg" fill="none" viewBox="0 0 24 24" focusable="false"><path fill="#74767B" fill-rule="evenodd" d="M19.15 13.98c.4.13.85-.16.85-.59V7c0-1.66-1.35-3-3-3H7C5.34 4 4 5.34 4 7v10c0 1.65 1.34 3 3 3h3.92c.39 0 .65-.44.57-.82-.06-.27-.29-.48-.56-.48H7c-.94 0-1.7-.77-1.7-1.7V7c0-.94.76-1.7 1.7-1.7h10c.93 0 1.7.76 1.7 1.7v6.4c0 .26.19.5.45.58M12.84 9.3c.34.11.53.47.43.82l-1.31 4.14c-.1.35-.47.54-.81.43a.664.664 0 0 1-.43-.82l1.31-4.14c.1-.35.47-.54.81-.43m-3.25.13c.29.22.34.62.11.89L8.29 12l1.41 1.67c.23.27.18.67-.11.89-.28.22-.7.18-.93-.09l-1.74-2.08c-.2-.23-.2-.56 0-.79l1.74-2.08c.23-.27.65-.31.93-.09m4.8 0c-.28.22-.33.62-.1.89L15.7 12l-1.41 1.67c-.23.27-.18.67.1.89.29.22.71.18.94-.09l1.74-2.08c.2-.23.2-.56 0-.79l-1.74-2.08a.695.695 0 0 0-.94-.09m7.14 10.29c.59-.72.59-1.73.01-2.46-.81-1.01-2.21-2.27-4.2-2.27s-3.39 1.27-4.2 2.28c-.58.72-.57 1.72.01 2.45.82 1.01 2.23 2.28 4.19 2.28s3.37-1.27 4.19-2.28m-4.19.98c1.37 0 2.45-.9 3.18-1.8.2-.25.2-.58.01-.83-.72-.89-1.79-1.78-3.19-1.78s-2.47.9-3.18 1.79c-.2.24-.2.57.01.82.72.9 1.8 1.8 3.17 1.8m1.03-2.18c0 .55-.45 1-1 1s-1-.45-1-1 .45-1 1-1 1 .45 1 1"/></svg>
